X: 221
%
U:~=!turn!
T: Harvest Home
C:
O:Scotland
B:Keith Norman MacDonald : "The Skye collection of the best reels & strathspeys extant" : 1887
Z:Ralph Palmer
R:Hornpipe
M:C
L:1/8
K:D
FE | DAFA DAFA | dfed (dc)(BA) | eAfA gAfA | edcB AGFE | DAFA DAFA |
df(ed) dc(BA) | Aceg Tfedc | {/c}d2 d2 d2 :: (cd) | eA A/A/A fA A/A/A | gA A/A/A fA A/A/A |
eAfA gAfA | ed(cB) AG(FE) | DAFA DAFA | {/c}dfed (dc)(BA) | Aceg Tfedc {/c}d2 d2 d2 :|


